X:1
T:All meiner Freud
T:Giovanni Giacomo Gastoldi
T:Source : Tricinia---Johann-Jacob Gastoldi und anderer Autorn---Nürnberg---P.Kauffmann---1607. Editor : André Vierendeels (14/03/17).
T:Notes : Original clefs : G2n G2, F3 Editorial accidentals above the staff Text Middle German by Valentin Hauszmann
T:All meiner Freud
T:©
T:©
T:©
C:Giovanni Giacomo Gastoldi
Z:©
%%score [ 1 2 3 ]
L:1/8
Q:1/4=101
M:4/4
K:F
V:1 treble nm="Soprano 1" snm="S 1"
V:2 treble nm="Soprano 2" snm="S 2"
V:3 treble-8 nm="Tenor" snm="T"
V:1
"^1)" z4 d2 de | f3 g fg a2- | a2 f2 e2 d2- | d2 ^c2 d4 | z d=Bc d4 | z fde f2 d2 | d3 c B4 | %7
w: All mei- ner|freud bin ich wor- den|_ _ ent- zo-|* * gen,|da ich von dir,|da ich von dir ein|trau- rigs schei-|
w: All mei- nes|Leids hab ich nun leicht|_ ver- ges- *|* * sen,|nun ich ge- sehn,|nun ich ge- dehn mich|an dein Erm-|
 A2 B4 A2 |1[M:2/4] B4- ::2[M:4/4] B4 G2 GG || d4 z4 | z2 A2 B2 A2 | G4 ^F2 G2- | %13
w: den g'pflo- *|gen,|* welchs mir das|marck|bald aus mein|Bei- nen g'so-|
w: lein g'ses- *|sen,|* Disz ist mein|trost,|jetzt schmäckt mir|trin- ck'n und|
 G2 ^F2 !fermata!G4 :| %14
w: * * gen.|
w: _ es- sen.|
V:2
"^2)" z8 |"^1)" d2 de f3 g | fg a4 f2 | e4 d4 | z fde f4 | z afg a2 f2 | f3 e d2 e2 | f2 _ed c4 |1 %8
w: |All mei- ner freud bin|ich wor- den ent-|zo- gen,|da ich von dir,|da ich von dir ein|trau- rigs schei- den|g'pflo- * * *|
w: |All mei- ner müh soll|mich gar nicht ver-|dries- sen,|der ich gegn dir,|der ich gegn dir je-|der- zeit be- flies-||
[M:2/4] d4 ::2[M:4/4] d2 dd g4 || z2 d2 f2 e2 | d2 ^c2 d3 c | B2 AG A4- | A4 !fermata!G4 :| %14
w: gen,|welchs mir das marck|bald ausz mein|Bei- nen g'so- *||* gen.|
w: sen,|weil ich nun kan|der treu- en|dienst ge- nies- *||* sen.|
V:3
"^1)""^4)" G2 GA B3 c |"^3)" dc d4 D2 | DEFG A4 | A4 z BGA | B4 z dBc | d2 d2 d3 c | B2 A2 B2 AG | %7
w: All mei- ner freud bin|ich wor- den ent-|zo- * * * *|gen, da ich von|dir, da ich von|dir ein trau- rigs|schei- den g'pflo- * *|
w: All mei- ner sorg thust|du mich jetzt be-|ne- * * * *|men, und hil- ffest|ab, und hil- ffest|ab meins Hert- zen|angst und gre- * *|
 F8 |1[M:2/4] B4- ::2[M:4/4] B4 z4 || G2 GG d2 A2 | B2 A2 G2 ^F2 | %12
w: |gen,||welchs mir das marck bald|ausz mein Bei- nen|
w: |men,||wie kanst du doch meins|glück- es bes- ser|
"^-natural""^-natural" G2 FE D2 C2 | D4 !fermata!G4 :| %14
w: g'so- * * * *|* gen.|
w: re- * * * *|* men?|

